assets/icons/meter/4-filled.svg

<?xml version="1.0" encoding="UTF-8" standalone="no"?>
<svg
   viewBox="0 0 24 24"
   width="24"
   height="24"
   version="1.1"
   id="svg8"
   sodipodi:docname="5-filled.svg"
   inkscape:version="1.2 (1:1.2.1+202207142221+cd75a1ee6d)"
   xmlns:inkscape="http://www.inkscape.org/namespaces/inkscape"
   xmlns:sodipodi="http://sodipodi.sourceforge.net/DTD/sodipodi-0.dtd"
   xmlns="http://www.w3.org/2000/svg"
   xmlns:svg="http://www.w3.org/2000/svg"
   xmlns:rdf="http://www.w3.org/1999/02/22-rdf-syntax-ns#"
   xmlns:cc="http://creativecommons.org/ns#"
   xmlns:dc="http://purl.org/dc/elements/1.1/">
  <defs
     id="defs2" />
  <sodipodi:namedview
     id="base"
     pagecolor="#ffffff"
     bordercolor="#666666"
     borderopacity="1.0"
     inkscape:pageopacity="0.0"
     inkscape:pageshadow="2"
     inkscape:zoom="32"
     inkscape:cx="6.75"
     inkscape:cy="12.125"
     inkscape:document-units="px"
     inkscape:current-layer="layer1"
     inkscape:document-rotation="0"
     showgrid="true"
     units="px"
     inkscape:snap-center="true"
     inkscape:window-width="1920"
     inkscape:window-height="1043"
     inkscape:window-x="0"
     inkscape:window-y="0"
     inkscape:window-maximized="1"
     inkscape:pagecheckerboard="0"
     inkscape:showpageshadow="2"
     inkscape:deskcolor="#d1d1d1">
    <inkscape:grid
       type="xygrid"
       id="grid833" />
    <inkscape:grid
       type="xygrid"
       id="grid846"
       dotted="true"
       spacingx="0.5"
       spacingy="0.5"
       empspacing="10" />
  </sodipodi:namedview>
  <metadata
     id="metadata5">
    <rdf:RDF>
      <cc:Work
         rdf:about="">
        <dc:format>image/svg+xml</dc:format>
        <dc:type
           rdf:resource="http://purl.org/dc/dcmitype/StillImage" />
      </cc:Work>
    </rdf:RDF>
  </metadata>
  <g
     inkscape:label="Calque 1"
     inkscape:groupmode="layer"
     id="layer1">
    <path
       id="path2747"
       style="color:#000000;fill:#808080;fill-rule:evenodd;stroke-linecap:round;stroke-linejoin:round"
       d="M 11 3 C 9.6340056 3.0710799 8.3456834 3.435603 7.1914062 4.0253906 L 8.1835938 5.7421875 L 7.3164062 6.2421875 L 6.3261719 4.5253906 C 5.2137731 5.2504238 4.2621417 6.2020535 3.5371094 7.3144531 L 5.2539062 8.3046875 L 4.7539062 9.171875 L 3.0371094 8.1796875 C 2.4473217 9.3339637 2.0828016 10.622289 2.0117188 11.988281 L 4 11.988281 L 4 12.988281 L 2.0175781 12.988281 C 2.0886761 14.354067 2.4479974 15.643333 3.0371094 16.796875 L 4.7539062 15.804688 L 5.2539062 16.671875 L 3.5390625 17.662109 C 4.4381973 19.041213 5.6822216 20.175269 7.1542969 20.933594 A 0.50005 0.50005 0 0 0 7.3847656 20.988281 L 15.617188 20.988281 A 0.50005 0.50005 0 0 0 15.845703 20.933594 C 17.317378 20.17511 18.561707 19.041262 19.460938 17.662109 L 17.746094 16.671875 L 18.246094 15.804688 L 19.962891 16.796875 C 20.552216 15.643234 20.911289 14.354004 20.982422 12.988281 L 19 12.988281 L 19 11.988281 L 20.988281 11.988281 C 20.917201 10.622289 20.552677 9.3339637 19.962891 8.1796875 L 18.246094 9.171875 L 17.746094 8.3046875 L 19.462891 7.3144531 C 18.737855 6.2020545 17.786227 5.2504238 16.673828 4.5253906 L 15.683594 6.2421875 L 14.816406 5.7421875 L 15.808594 4.0253906 C 14.654316 3.435603 13.365996 3.0710836 12 3 L 12 4.9882812 L 11 4.9882812 L 11 3 z M 10.052734 5.1269531 L 11.628906 11.003906 A 1.5 1.5 0 0 1 12.960938 12.111328 A 1.5 1.5 0 0 1 13.009766 12.443359 A 1.5 1.5 0 0 1 11.900391 13.949219 A 1.5 1.5 0 0 1 10.0625 12.888672 A 1.5 1.5 0 0 1 10.662109 11.263672 L 9.0878906 5.3847656 L 10.052734 5.1269531 z " />
    <g
       id="layer9"
       label="status"
       style="display:inline;stroke-width:0.8"
       transform="matrix(0.33072916,0,0,0.33072916,-294.81205,62.363802)" />
    <g
       id="layer2"
       style="display:inline;stroke-width:0.8"
       transform="matrix(0.33072916,0,0,0.33072916,-215.10626,-59.0138)" />
    <g
       id="layer4"
       style="display:inline;stroke-width:0.8"
       transform="matrix(0.33072916,0,0,0.33072916,-215.10626,-59.0138)" />
    <g
       id="g1812"
       style="display:inline;stroke-width:0.8"
       transform="matrix(0.33072916,0,0,0.33072916,-215.10626,-59.0138)" />
    <g
       id="g6217"
       style="display:inline;stroke-width:0.8"
       transform="matrix(0.33072916,0,0,0.33072916,-215.10626,-59.0138)" />
    <g
       id="layer3"
       style="display:inline;stroke-width:0.8"
       transform="matrix(0.33072916,0,0,0.33072916,-215.10626,-59.0138)" />
    <g
       id="layer1-6"
       style="display:inline;stroke-width:0.8"
       transform="matrix(0.33072916,0,0,0.33072916,-215.10626,-59.0138)" />
  </g>
</svg>

<svg width="24" height="24" xmlns="http://www.w3.org/2000/svg"><path style="color:#000;fill:gray;stroke-linecap:round;stroke-linejoin:round" d="M11 3a9.43 9.43 0 0 0-3.809 1.025l.993 1.717-.868.5-.99-1.717a9.57 9.57 0 0 0-2.789 2.79l1.717.99-.5.867-1.717-.992a9.43 9.43 0 0 0-1.025 3.808H4v1H2.018a9.434 9.434 0 0 0 1.02 3.809l1.716-.992.5.867-1.715.99a9.54 9.54 0 0 0 3.615 3.272.5.5 0 0 0 .23.054h8.233a.5.5 0 0 0 .229-.054 9.544 9.544 0 0 0 3.615-3.272l-1.715-.99.5-.867 1.717.992a9.432 9.432 0 0 0 1.02-3.809H19v-1h1.988a9.43 9.43 0 0 0-1.025-3.808l-1.717.992-.5-.867 1.717-.99a9.57 9.57 0 0 0-2.79-2.79l-.99 1.717-.867-.5.993-1.717A9.43 9.43 0 0 0 12 3v1.988h-1V3zm-.947 2.127 1.576 5.877a1.5 1.5 0 0 1 1.332 1.107 1.5 1.5 0 0 1 .049.332 1.5 1.5 0 0 1-1.11 1.506 1.5 1.5 0 0 1-1.838-1.06 1.5 1.5 0 0 1 .6-1.625l-1.574-5.88.965-.257z"/></svg>
